X:1
T:Title
%%score ( 1 2 3 ) ( 4 5 6 7 )
L:1/8
Q:1/4=100
M:4/4
K:Eb
V:1 treble nm="Midi_20"
V:2 treble 
V:3 treble 
V:4 bass nm="Midi_20"
V:5 bass 
V:6 bass 
V:7 bass 
V:1
"^Cantate Domino (D.L.M.)""^Joseph Barnby\n(1838-96)" G2 | B2 c2 B2 GF | E2 F2 G2 B2 | %3
 G2 =A2 B2 cd | c2 c2 B2 || B2 | G2 c2 B2 GF | E2 F2 G2 =A2 | B2 c2 d2 ed | c2 c2 !fermata!B2 || %10
 B2 | e2 e2 d2 ed | c2 c2 B2 e2 | A2 A2 G2 =AB | c2 B=A B2 || B2 | e2 e2 d2 ed | c2 c2 B2 _E2 | %18
 A2 G2 F2 _E2 | (D2 E2) F4 | E6 |] %21
V:2
 E2 | E2 E2 E2 D2 | E2 D2 E2 F2 | G2 E2 D2 EF | G2 FE D2 || F2 | E2 E2 F2 D2 | E2 B,2 G2 E2 | %8
 D2 F2 F2 EF | G2 FE D2 || B2 | e2 e2 d2 ed | c2 c2 B2 E2 | E2 D2 G2 G2 | G2 ^F2 G2 || B2 | %16
 e2 e2 d2 ed | c2 c2 B2 !courtesy!_E2 | E2 =E2 F2 C2 | (B,2 E2) D4 | E6 |] %21
V:3
 x2 | x8 | x8 | x8 | x6 || x2 | x8 | x8 | x8 | x6 || x2 | G8 | E6 x2 | x8 | x6 || D2 | %16
 E2 F2 F2 GF | =E2 F2 F2 x2 | x8 | x8 | x6 |] %21
V:4
 B,2 | G,2 A,2 F,2 B,A, | G,2 B,2 B,2 B,2 | B,2 C2 B,2 B,2 | B,2 =A,2 B,2 || B,2 | %6
 B,2 A,2 A,F, B,A, | G,2 B,2 B,2 C2 | B,2 =A,2 B,2 B,2 | B,2 =A,2 B,2 || B,2 | E2 E2 D2 ED | %12
 C2 C2 B,2 B,2 | C2 B,2 B,2 ED | C2 C2 B,2 || %15
"^1. Our Lord is risen from the dead,\nOur Jesus is gone up on high!\nThe powers of hell are captive led,\nDragged to the portals of the sky.\nThere His triumphal chariot waits,\nAnd angels chant the solemn lay:\n'Lift up your heads, ye heavenly gates,\nYe everlasting doors, give way!'\n\n2. Loose all your bars of massy light,\nAnd wide unfold the ethereal scene:\nHe claims these mansions as His right;\nReceive the King of Glory in!\nWho is this King of Glory? Who?\nThe Lord, that all our foes o'ercame,\nThe world, sin,  death and hell o'erthrew;\nAnd Jesus is the Conqueror's name." B,2 | %16
 E2 E2 D2 ED | C2 C2 B,2 G,2 | %18
"^3. Lo! His triumphal chariot waits,\nAnd angels chant the solemn lay:\n'Lift up your heads, ye heavenly gates,\nYe everlasting doors, give way!'\nWho is this King of Glory? Who?\nThe Lord, of glorious power possessed,\nThe King of saints, and angels too,\nGod over all, for ever blest!" A,2 B,2 A,2 G,2 | %19
 (F,2 G,2) A,4 | G,6 |] %21
V:5
 E,2 | E,2 A,,2 B,,2 B,,2 | C,2 B,,2 E,2 D,2 | E,2 C,2 G,2 F,2 | E,2 F,2 B,,2 || D,2 | %6
 E,2 C,2 D,2 B,,2 | C,2 D,2 E,2 C,2 | G,2 F,2 B,=A, G,F, | E,2 F,2 B,2 || B,2 | E2 E2 D2 ED | %12
 C2 C2 B,2 G,2 | F,2 B,,2 E,D, C,B,, | =A,,2 D,2 G,2 || B,2 | E2 E2 D2 ED | C2 C2 B,2 E,2 | %18
 C,2 C,2 F,2 A,,2 | B,,4 B,,4 | E,6 |] %21
V:6
 x2 | x8 | x8 | x8 | x6 || x2 | x8 | x8 | x8 | x6 || B,,2 | C,2 E,2 G,2 G,,2 | A,,2 C,2 E,2 x2 | %13
 x8 | x6 || [F,A,]2 | [E,G,]2 [C,=A,]2 [B,,B,]2 [G,,=B,]2 | C,2 F,E, D,2 x2 | x8 | x8 | x6 |] %21
V:7
 x2 | x8 | x8 | x8 | x6 || x2 | x8 | x8 | x8 | x6 || x2 | x8 | x8 | x8 | x6 || x2 | x8 | %17
 CB, A,2 x4 | x8 | x8 | x6 |] %21

